X:35
T:Behind yon hills. Dix.35
M:C
L:1/8
Q:1/4=120
S:Anon. MS dated 1811, from Dixon collection, Holton le Moor, Lincs.
R:song
O:England;Lincolnshire;Holton le Moor
Z:vmp.R.Greig 2012 <http://www.village-music-project.org.uk>
K:Em
(G>A)|B2E2B2>A2|G2″tr”(F>E)E2 (DE)|G2>A2 (B>AB) d|e2(A>B)A2!
w:Be–hind you hills where Lu–gar flows, m-ang mu-irs a–nd moss-es man-y, O
(GA)|B2{B}{c} d2cB (AG)|A2B2Hg2>f2|(e>ge) d (B>AB) ^d|e2(E>F)E2:|!
w:Th-e wint-ry s-un th-e day has closed, and I–‘ll a—wa to Nann–ie, O.
|:B>c|d2>e2 {e}d2(cB)|g2 (d>e)d2 (gf)|e2>d2 (e>fg) a|b2(e>f)e2 (dc)|!
w:Th-e west-lin winds bl-aw loud a-nd shrill; th-e Night’s baith m–irk and rain–y, O. I’ll
B2f2 (dB) (AG)|A2B2Hg2>f|(f>gf) d (B>AB) ^d|e2 (E>F)E2:|
w:get my pl-aid, a-nd out I’ll steal and o–er the h–ill to Nann–ie, O.

